X:3705
T:the Mountain road
M:4/4
O:Ireland
R:Reel
Z:Richard Robinson 
%%TUNEURL: http://www.leeds.ac.uk/music/Info/RRTuneBk/gettune/00000843.html
%%ID:00000843
K:D
F2 AF BF AF|F2 AF EF DE|\
F2 AF BF AF|G2 (3FGF ED B,D|\
F2 AF BF AF|F2 AF EF DE|\
FA (3AAA BA (3AAA |dc de fd d2|:\
dc dB AD FA|dc de fg fe|\
dc dB AD FA|G2 (3FGF ED B,D:|
